svg/map_marker_down.svg

<svg xmlns="http://www.w3.org/2000/svg" viewBox="0 0 24 24"><path d="M12 2a7 7 0 0 0-7 7c0 5.25 7 13 7 13s7-7.75 7-13a7 7 0 0 0-7-7m-4.5 8H10V5h4v5h2.5L12 14.5Z"/></svg>

<?xml version="1.0" encoding="UTF-8"?><!DOCTYPE svg PUBLIC "-//W3C//DTD SVG 1.1//EN" "http://www.w3.org/Graphics/SVG/1.1/DTD/svg11.dtd"><svg xmlns="http://www.w3.org/2000/svg" xmlns:xlink="http://www.w3.org/1999/xlink" version="1.1" id="mdi-map-marker-down" width="24" height="24" viewBox="0 0 24 24"><path d="M12 2A7 7 0 0 0 5 9C5 14.25 12 22 12 22S19 14.25 19 9A7 7 0 0 0 12 2M7.5 10H10V5H14V10H16.5L12 14.5Z" /></svg>
